icons/loss-smell.svg

<svg width="48" height="48" viewBox="0 0 48 48" fill="none" xmlns="http://www.w3.org/2000/svg">
<path fill-rule="evenodd" clip-rule="evenodd" d="M4 14C4 8.47715 8.47715 4 14 4C19.5228 4 24 8.47715 24 14C24 19.5228 19.5228 24 14 24C8.47715 24 4 19.5228 4 14ZM14 6C9.58172 6 6 9.58172 6 14C6 15.8487 6.62708 17.551 7.68014 18.9056L18.9056 7.68014C17.551 6.62708 15.8487 6 14 6ZM20.3199 9.09436L9.09436 20.3199C10.449 21.3729 12.1513 22 14 22C18.4183 22 22 18.4183 22 14C22 12.1513 21.3729 10.449 20.3199 9.09436Z" fill="black"/>
<path d="M39.3923 4.08017C39.9003 4.29683 40.1365 4.8843 39.9198 5.39231L39.9159 5.40156L39.9057 5.42523L39.867 5.51431C39.8332 5.59173 39.7834 5.70459 39.7188 5.84879C39.5895 6.13714 39.4003 6.55112 39.159 7.05797C38.6769 8.07083 37.9845 9.45881 37.1438 10.9585C35.4889 13.9104 33.1671 17.4661 30.6596 19.3345L30.6579 19.3358C28.1706 21.1811 27.744 23.1533 28.1213 24.5219C28.5148 25.9495 29.8303 27 31.4291 27H32.2314C32.4957 26.3315 32.9829 25.6878 33.7521 25.2462C34.8549 24.6131 36.3649 24.4928 38.2747 25.0385C38.8058 25.1902 39.1133 25.7437 38.9615 26.2747C38.8098 26.8058 38.2563 27.1133 37.7253 26.9615C36.1351 26.5072 35.2284 26.7048 34.7479 26.9807C34.6602 27.031 34.581 27.0871 34.5098 27.1479C35.9505 27.5813 37 28.9181 37 30.5H35C35 29.6716 34.3284 29 33.5 29H31.4291C28.9269 29 26.8249 27.3451 26.1932 25.0533C25.5452 22.7026 26.4854 19.9414 29.4656 17.7301C31.599 16.1399 33.7458 12.9297 35.3992 9.98042C36.2128 8.5292 36.8847 7.18246 37.3532 6.19832C37.5873 5.70667 37.77 5.30657 37.8938 5.03048C37.9557 4.89245 38.0029 4.78549 38.0342 4.71366L38.0694 4.63278L38.0779 4.61307L38.0798 4.60857L38.0802 4.60762L39.3923 4.08017Z" fill="black"/>
<path d="M30.5821 31.1869C31.0311 31.5083 31.1346 32.133 30.8131 32.5821C30.2266 33.4015 29.477 34.1469 28.5973 34.8021C28.1543 35.1319 27.5278 35.0402 27.198 34.5973C26.8681 34.1543 26.9598 33.5278 27.4027 33.198C28.1377 32.6506 28.7349 32.0493 29.1869 31.4179C29.5083 30.9689 30.133 30.8654 30.5821 31.1869Z" fill="black"/>
<path fill-rule="evenodd" clip-rule="evenodd" d="M25.5534 37.8329L25.5547 37.8321C26.0142 37.5257 26.1384 36.9048 25.8321 36.4453C25.5269 35.9875 24.9095 35.8626 24.4506 36.1645L24.4486 36.1657C24.4441 36.1686 24.4342 36.1748 24.4189 36.1839C24.3882 36.2021 24.3363 36.2319 24.264 36.2697C24.1192 36.3452 23.8939 36.4518 23.5958 36.5602C22.9995 36.777 22.1155 37 21 37C20.4477 37 20 37.4477 20 38C20 38.5523 20.4477 39 21 39C22.3845 39 23.5005 38.723 24.2792 38.4398C24.6686 38.2982 24.9745 38.1548 25.1891 38.0428C25.2965 37.9868 25.3813 37.9385 25.4425 37.9021C25.4731 37.8838 25.4978 37.8686 25.5165 37.8567L25.5401 37.8416L25.5486 37.8361L25.5534 37.8329ZM25 37L25.5547 37.8321C25.555 37.8318 25.5547 37.8321 25 37Z" fill="black"/>
<path d="M36.9999 40.5129C37.007 39.9607 36.5651 39.5072 36.0129 39.5001C35.4607 39.493 35.0072 39.9349 35.0001 40.4871C34.9889 41.3504 35.1272 42.0717 35.2704 42.5825C35.3422 42.8385 35.4159 43.0437 35.474 43.1899C35.5032 43.2632 35.5285 43.3219 35.548 43.3651C35.5492 43.3678 35.5504 43.3704 35.5516 43.373C35.5598 43.3911 35.5668 43.4062 35.5726 43.4182L35.5811 43.4359L35.5843 43.4425L35.5857 43.4452L35.5863 43.4464C35.5864 43.4467 35.5869 43.4476 36.4811 43L35.5869 43.4476C35.834 43.9414 36.4348 44.1414 36.9287 43.8943C37.4205 43.6481 37.6209 43.0512 37.3784 42.5585L37.3713 42.5431C37.3635 42.5258 37.3499 42.4947 37.3324 42.4507C37.2973 42.3626 37.2471 42.224 37.1961 42.0425C37.094 41.6783 36.9917 41.1496 36.9999 40.5129Z" fill="black"/>
<path d="M37.4489 34.3157C37.6228 33.7921 37.3398 33.2258 36.8162 33.0513C36.2923 32.8767 35.726 33.1598 35.5513 33.6838L35.5502 33.6871L35.5484 33.6926L35.5427 33.7102C35.538 33.7247 35.5316 33.7449 35.5237 33.7703C35.5079 33.8211 35.4861 33.893 35.4604 33.9831C35.409 34.1629 35.3413 34.4168 35.2738 34.7206C35.1405 35.3207 35 36.1492 35 37C35 37.5523 35.4477 38 36 38C36.5523 38 37 37.5523 37 37C37 36.3508 37.1095 35.6793 37.2262 35.1544C37.2837 34.8957 37.341 34.6808 37.3834 34.5325C37.4045 34.4585 37.4218 34.4015 37.4334 34.3645L37.4461 34.3242L37.4489 34.3157Z" fill="black"/>
<path d="M33.8935 34.449C34.1415 33.9555 33.9425 33.3544 33.449 33.1065C32.9555 32.8585 32.3544 33.0575 32.1065 33.551C31.9056 33.9508 31.7369 34.3806 31.5936 34.7458C31.5354 34.8941 31.481 35.0326 31.4308 35.1531C31.2402 35.61 31.0441 35.9917 30.7375 36.353C30.3802 36.7742 30.4319 37.4052 30.853 37.7625C31.2742 38.1198 31.9052 38.0681 32.2625 37.647C32.7592 37.0616 33.0497 36.4673 33.2767 35.9229C33.361 35.7208 33.4316 35.5402 33.498 35.3703C33.6234 35.0496 33.7341 34.7663 33.8935 34.449Z" fill="black"/>
<path d="M43.9933 25.2747C43.5983 26.8066 42.6118 28.1991 41.5145 28.8575L40.4855 27.1425C41.0548 26.8009 41.7684 25.8934 42.0567 24.7753C42.3317 23.7088 42.1867 22.601 41.2929 21.7071L42.7071 20.2929C44.2133 21.799 44.4016 23.6912 43.9933 25.2747Z" fill="black"/>
<path fill-rule="evenodd" clip-rule="evenodd" d="M29.8 40.6C30.1314 40.1582 30.0418 39.5314 29.6 39.2C29.1582 38.8687 28.5314 38.9583 28.2 39.4L28.198 39.4027L28.1875 39.4165C28.1778 39.4292 28.1627 39.4489 28.1425 39.4749C28.1022 39.5269 28.0418 39.6038 27.9642 39.6998C27.8088 39.8922 27.5861 40.1595 27.3192 40.456C26.7733 41.0626 26.0899 41.7382 25.4453 42.1679C24.9858 42.4743 24.8616 43.0952 25.1679 43.5547C25.4743 44.0142 26.0952 44.1384 26.5547 43.8321C27.4101 43.2618 28.2267 42.4374 28.8058 41.794C29.1014 41.4655 29.3474 41.1703 29.5201 40.9565C29.6066 40.8494 29.6751 40.7622 29.7227 40.7009C29.7257 40.6971 29.7286 40.6933 29.7314 40.6897C29.751 40.6643 29.7667 40.6439 29.7781 40.6289L29.7933 40.6088L29.7978 40.603L29.8 40.6ZM29.8 40.6L29 40L29.7526 40.5644C29.8 40.5999 29.8 40.6 29.8 40.6Z" fill="black"/>
</svg>

<svg
  xmlns="http://www.w3.org/2000/svg"
  width="24"
  height="24"
  viewBox="0 0 24 24"
  fill="none"
  stroke="currentColor"
  stroke-width="2"
  stroke-linecap="round"
  stroke-linejoin="round"
>
  <path
    fill-rule="evenodd"
    d="M4 14C4 8.477 8.477 4 14 4s10 4.477 10 10-4.477 10-10 10S4 19.523 4 14m10-8a8 8 0 0 0-6.32 12.906L18.906 7.68A7.97 7.97 0 0 0 14 6m6.32 3.094L9.094 20.32A8 8 0 0 0 20.32 9.094"
    clip-rule="evenodd"
  />
  <path d="M39.392 4.08a1 1 0 0 1 .528 1.312l-.004.01-.01.023-.039.09-.148.334a66.853 66.853 0 0 1-2.575 5.11c-1.655 2.951-3.977 6.507-6.484 8.375l-.002.002c-2.487 1.845-2.914 3.817-2.537 5.186C28.515 25.95 29.831 27 31.43 27h.802a3.48 3.48 0 0 1 1.521-1.754c1.103-.633 2.613-.753 4.523-.207a1 1 0 1 1-.55 1.922c-1.59-.454-2.497-.256-2.977.02q-.132.075-.238.167A3.5 3.5 0 0 1 37 30.5h-2a1.5 1.5 0 0 0-1.5-1.5h-2.07c-2.503 0-4.605-1.655-5.237-3.947-.648-2.35.292-5.112 3.273-7.323 2.133-1.59 4.28-4.8 5.933-7.75a65 65 0 0 0 2.635-5.266l.035-.081.009-.02.002-.004v-.001z" />
  <path d="M30.582 31.187a1 1 0 0 1 .231 1.395c-.586.82-1.336 1.565-2.216 2.22a1 1 0 0 1-1.194-1.604c.735-.547 1.332-1.149 1.784-1.78a1 1 0 0 1 1.395-.231" />
  <path
    fill-rule="evenodd"
    d="M25.553 37.833h.002a1 1 0 0 0-1.104-1.669l-.002.002-.03.018a3 3 0 0 1-.155.086 6 6 0 0 1-.668.29C23 36.777 22.116 37 21 37a1 1 0 1 0 0 2c1.384 0 2.5-.277 3.28-.56.389-.142.694-.285.91-.397a5 5 0 0 0 .326-.186l.024-.015.009-.006zM25 37l.555.832z"
    clip-rule="evenodd"
  />
  <path d="M37 40.513a1 1 0 0 0-2-.026 7.4 7.4 0 0 0 .27 2.096 6 6 0 0 0 .278.782l.004.008.02.045.01.018.002.007.002.002v.001s0 .002.895-.446l-.894.448a1 1 0 0 0 1.791-.89l-.007-.015-.039-.092a4 4 0 0 1-.136-.409 5.5 5.5 0 0 1-.196-1.53" />
  <path d="M37.449 34.316a1 1 0 0 0-1.898-.632v.003l-.003.006-.005.017a6 6 0 0 0-.083.273c-.051.18-.119.434-.186.738C35.14 35.32 35 36.149 35 37a1 1 0 1 0 2 0c0-.65.11-1.32.226-1.846a11 11 0 0 1 .207-.79l.013-.04z" />
  <path d="M33.894 34.449a1 1 0 1 0-1.788-.898c-.2.4-.37.83-.512 1.195-.059.148-.113.287-.163.407-.19.457-.387.839-.694 1.2a1 1 0 0 0 1.526 1.294c.496-.585.787-1.18 1.014-1.724.084-.202.155-.383.221-.553.125-.32.236-.604.396-.921" />
  <path d="M43.993 25.275c-.395 1.532-1.381 2.924-2.479 3.583l-1.029-1.716c.57-.341 1.283-1.249 1.572-2.367.275-1.066.13-2.174-.764-3.068l1.414-1.414c1.506 1.506 1.695 3.398 1.286 4.982" />
  <path
    fill-rule="evenodd"
    d="M29.8 40.6a1 1 0 0 0-1.6-1.2l-.002.003-.01.014a9 9 0 0 1-.224.283c-.155.192-.378.46-.645.756-.546.607-1.23 1.282-1.874 1.712a1 1 0 0 0 1.11 1.664c.855-.57 1.672-1.395 2.25-2.038a21 21 0 0 0 .918-1.093l.008-.011.047-.061.015-.02.005-.006zm0 0L29 40l.753.564z"
    clip-rule="evenodd"
  />
</svg>
